//**

https://strudel.cc/#c2V0Y3BtKDExMC80KQoKCkRSVU1TXzAwMSQ6IApzb3VuZCgKICAiYmQgLSBiZCBiZCIKKQoucm9vbSgwLjkpCi5zd2luZ0J5KDEvNCwgMSkKLm9yYml0KDEpCi5scGYoODAwKQouX3BpYW5vcm9sbCgpCkhJR0hfMDAxJDoKc291bmQoInJkKjQiKQoKQkFTU18wMDEkOgpub3RlKCI8Wy0zKjJdIC01KjI%2BIDIqMiA8NCA3PiA8MSA2PiIpCi5hbmNob3IoImMzIikKLnNjYWxlKCJjOm1ham9yIikKLnNvdW5kKCJwaWFubyIpCi5ocGYoNDAwKQoubHBmKDEyMDApCi5yb29tKDAuNSkKLmRpc3QoMC42KQouZ2FpbigxLjI1KQouZGVsYXkoMC42KQouX3BpYW5vcm9sbCgpCgpEUlVNU19ISUdIJDogc291bmQoIltyaW0gLV0gWy0gcmltXSByaW0gcmltLCAtIG10IC0gbXQiKQoKX0hJR0hfMDAxJDoKbm90ZSgiMyo4IikKLmFuY2hvcigiYzYiKQouc2NhbGUoImM6bWFqb3IiKQouc291bmQoImdtX3RpbmtsZV9iZWxsIikKCg%3D%3D

**//

setcpm(110/4)

DRUMS_001$: 
sound(
  "bd - bd bd"
)
.room(0.9)
.swingBy(1/4, 1)
.orbit(1)
.lpf(800)
._pianoroll()
HIGH_001$:
sound("rd*4")

BASS_001$:
note("<[-3*2] -5*2> 2*2 <4 7> <1 6>")
.anchor("c3")
.scale("c:major")
.sound("piano")
.hpf(400)
.lpf(1200)
.room(0.5)
.dist(0.6)
.gain(1.25)
.delay(0.6)
._pianoroll()

DRUMS_HIGH$: sound("[rim -] [- rim] rim rim, - mt - mt")
